assets/post/images/dual4.svg

<svg xmlns="http://www.w3.org/2000/svg" width="1298" height="1031" overflow="hidden"><defs><clipPath id="a"><path d="M1607 1169h1298v1031H1607z"/></clipPath></defs><g clip-path="url(#a)" transform="translate(-1607 -1169)"><path d="M1607.5 2121.92h1209.26v9.16H1607.5Zm1204.67-18.34 45.83 22.92-45.83 22.92Z"/><path d="M2259.083 2199.61v-942.863h-9.166v942.863Zm18.334-938.28-22.917-45.833-22.916 45.833Z"/><path fill-rule="evenodd" d="M2797.55 2046.75c1.73 0 3.1.58 4.1 1.74s1.5 2.73 1.5 4.7q0 3.21-1.26 7.98l-1.78 7.02c-.46 1.78-.79 3.17-1 4.17-.2 1-.35 1.86-.44 2.59-.1.73-.14 1.34-.14 1.83 0 1.86.31 3.21.93 4.03s1.63 1.24 3.04 1.24c1.13 0 2.35-.46 3.66-1.36 1.32-.91 2.71-2.27 4.18-4.09 1.47-1.83 2.65-3.6 3.55-5.31.89-1.72 1.62-3.83 2.18-6.35l3.85-17.54h7.02l-5.92 25.69c-.6 2.59-.89 4.59-.89 6 0 1.08.17 1.86.52 2.35.35.48.91.73 1.66.73.82 0 1.68-.33 2.6-1 .92-.66 2.21-1.92 3.89-3.78l2.31 2.27c-2.46 2.62-4.55 4.47-6.28 5.55s-3.57 1.62-5.51 1.62c-1.68 0-3.02-.56-4.02-1.66-1-1.11-1.5-2.58-1.5-4.42 0-1.46.33-3.05.98-4.78l-.49-.17c-2.67 3.76-5.21 6.53-7.6 8.31-2.39 1.79-4.84 2.68-7.35 2.68-2.52 0-4.45-.72-5.8-2.17s-2.03-3.45-2.03-6.02c0-1.7.4-4.12 1.18-7.25l2.63-10.62c.73-2.95 1.1-5.03 1.1-6.24 0-1.08-.18-1.87-.53-2.35-.35-.49-.9-.73-1.66-.73-.84 0-1.72.34-2.66 1.03-.93.69-2.2 1.94-3.82 3.75l-2.31-2.27c2.29-2.32 4.02-3.92 5.18-4.78 1.16-.87 2.28-1.48 3.35-1.85 1.06-.36 2.26-.54 3.58-.54"/><text x="2785.44" y="2081.82" fill-opacity="0" font-family="Arial,Arial_MSFontService,sans-serif" font-size="40.081">𝑢</text><path fill-rule="evenodd" d="M2306.9 1262.23h5.59l-2.23 10.01h12.32l-.89 4.09h-12.32l-3.61 15.72c-.7 3.06-1.15 5.25-1.34 6.59s-.28 2.41-.28 3.22c0 3.35 1.39 5.03 4.17 5.03 1.19 0 2.46-.45 3.79-1.36 1.34-.91 2.93-2.45 4.77-4.64l2.35 2.43c-2.35 2.84-4.62 4.93-6.79 6.28-2.18 1.35-4.45 2.03-6.83 2.03-5.65 0-8.47-2.85-8.47-8.55 0-1.81.23-3.72.69-5.72l4.78-21.03h-6.81l.61-2.8q2.385-.03 3.63-.36c.82-.22 1.51-.51 2.06-.89.56-.38 1.06-.92 1.52-1.62.46-.71.91-1.6 1.34-2.7q.645-1.635 1.95-5.73"/><text x="2295.79" y="1305.45" fill-opacity="0" font-family="Arial,Arial_MSFontService,sans-serif" font-size="49.403">𝑡</text><path fill="none" stroke="#d74514" stroke-miterlimit="8" stroke-width="9.167" d="m1660.5 1964.5 1090.6 6.73"/><path fill-rule="evenodd" d="M2319.45 2024.08c-1.37 0-2.73.46-4.07 1.39-1.34.94-2.8 2.43-4.4 4.48-1.59 2.06-2.83 4.08-3.72 6.08-.9 2-1.6 4.3-2.11 6.89l-.33 1.7c-.27 1.44-.43 2.53-.5 3.29-.07.75-.1 1.5-.1 2.23 0 2.1.45 3.64 1.35 4.6.91.95 2.47 1.43 4.68 1.43q2.07 0 3.81-.81c1.17-.54 2.27-1.32 3.31-2.35 1.04-1.02 1.98-2.27 2.81-3.73.84-1.45 1.59-3.15 2.25-5.08.67-1.93 1.17-3.92 1.5-5.96q.51-3.06.51-5.73c0-2.84-.4-4.95-1.2-6.35-.79-1.39-2.06-2.08-3.79-2.08m-17.06-4.79c1.68 0 3.01.56 3.99 1.67.99 1.1 1.48 2.58 1.48 4.41 0 1.52-.31 3.11-.93 4.79l.49.16c5-7.32 9.97-10.99 14.91-10.99 2.95 0 5.24 1.13 6.87 3.37 1.64 2.24 2.45 5.4 2.45 9.48 0 4.46-.9 8.84-2.69 13.15-1.8 4.31-4.29 7.73-7.48 10.26-3.19 2.52-6.75 3.79-10.7 3.79-3.59 0-6.58-.79-8.95-2.35l-1.87 8.87c-.4 1.92-.61 3.5-.61 4.74 0 1.19.31 2.04.91 2.54.61.5 1.79.83 3.55.99l-.32 1.98h-12.53l9.77-43c.57-2.48.85-4.52.85-6.11 0-1.09-.17-1.87-.52-2.36-.36-.48-.91-.72-1.67-.72-.83 0-1.72.34-2.65 1.03s-2.21 1.94-3.83 3.75l-2.31-2.27q3.645-3.81 6.18-5.49a9.95 9.95 0 0 1 5.61-1.69"/><text x="2290.6" y="2069.05" fill-opacity="0" font-family="Arial,Arial_MSFontService,sans-serif" font-size="56.86">𝑝</text><path fill-rule="evenodd" d="M2350.05 1999.84h3.93l-.86 9.32 7.65-5.39 1.94 3.34-8.49 3.96 8.49 3.99-1.94 3.31-7.65-5.39.86 9.32h-3.93l.89-9.32-7.68 5.39-1.97-3.31 8.52-3.99-8.52-3.96 1.97-3.34 7.68 5.39Z"/><text x="2341.29" y="2019.49" fill-opacity="0" font-family="Arial,Arial_MSFontService,sans-serif" font-size="22.458">∗</text><path fill-rule="evenodd" d="M2398.86 2040.73h49.93v5.39h-49.93Zm0-16.82h49.93v5.39h-49.93Z"/><text x="2398.86" y="2043.35" fill-opacity="0" font-family="Arial,Arial_MSFontService,sans-serif" font-size="22.209">=</text><path fill-rule="evenodd" d="M2508.62 2022.5c-2.76 0-5.23 1.11-7.42 3.34s-3.91 5.23-5.17 9.02c-1.25 3.78-1.88 7.55-1.88 11.3 0 2.81.4 4.91 1.21 6.31.81 1.39 2.08 2.08 3.81 2.08 1.38 0 2.75-.47 4.12-1.42 1.36-.94 2.82-2.44 4.37-4.49q2.34-3.09 3.63-5.88c.86-1.86 1.6-4.19 2.21-6.97s.91-5.2.91-7.26c0-2.1-.45-3.64-1.34-4.6-.89-.95-2.37-1.43-4.45-1.43m-.65-3.21c1.7 0 3.31.21 4.82.61 1.51.41 3.04 1.1 4.58 2.07l3.73-2.68 2.59.65-4.17 18.89c-.3 1.32-.98 4.66-2.03 10.01-1.11 5.67-2.01 9.68-2.69 12.04q-1.035 3.525-2.58 6.42a17.7 17.7 0 0 1-3.97 5.04c-1.62 1.44-3.59 2.54-5.9 3.33-2.31.78-5.04 1.17-8.2 1.17-10.22 0-15.32-2.97-15.32-8.91 0-1.52.46-2.89 1.38-4.14.91-1.24 2.39-2.55 4.41-3.93l2.92 2.35c-.51.62-.94 1.24-1.3 1.85-.35.6-.6 1.19-.75 1.76-.14.57-.22 1.24-.22 2.03 0 2.02.73 3.5 2.19 4.43 1.46.94 3.66 1.4 6.61 1.4 3.32 0 5.99-.75 8-2.25s3.74-3.91 5.17-7.23 2.82-8.35 4.17-15.08l-.57-.12c-2.62 3.59-5.05 6.22-7.29 7.86-2.24 1.65-4.66 2.48-7.26 2.48-2.94 0-5.23-1.11-6.86-3.33q-2.46-3.315-2.46-9.48c0-4.62.91-9.06 2.72-13.31 1.81-4.26 4.32-7.64 7.54-10.16 3.21-2.51 6.79-3.77 10.74-3.77"/><text x="2478.83" y="2069.65" fill-opacity="0" font-family="Arial,Arial_MSFontService,sans-serif" font-size="57.549">𝑔</text><path fill-rule="evenodd" d="M2640.73 1996.61c7.89 2.08 13.95 6.58 18.18 13.48s6.34 15.23 6.34 24.98c0 9.78-2.11 18.11-6.32 24.99-4.22 6.88-10.28 11.35-18.2 13.43l-.97-3.12c6.24-2.08 10.88-6.18 13.92-12.32 3.04-6.13 4.56-13.92 4.56-23.38 0-9.13-1.51-16.72-4.54-22.76s-7.71-10.1-14.06-12.18Zm-79.47 0 1.1 3.12c-6.32 2.08-11.01 6.14-14.05 12.18-3.03 6.04-4.55 13.63-4.55 22.76 0 9.46 1.52 17.25 4.55 23.38 3.04 6.14 7.68 10.24 13.93 12.32l-.98 3.12c-7.91-2.08-13.98-6.55-18.19-13.43q-6.33-10.32-6.33-24.99c0-9.75 2.12-18.08 6.35-24.98 4.22-6.9 10.28-11.4 18.17-13.48m26.78 4.12c2.08 0 3.68.49 4.79 1.46 1.1.97 1.89 2.51 2.35 4.6q.69 3.15.69 9.18c0 1.33-.03 3.24-.09 5.76l-.16 6.4c-.21 6.08-.32 10.86-.32 14.35 0 2.81.06 5 .18 6.58s.32 2.78.59 3.59.61 1.36 1.01 1.64c.41.28.91.43 1.5.43.7 0 1.45-.24 2.25-.71.8-.48 1.78-1.33 2.94-2.58l2.27 2.27c-1.76 1.79-3.49 3.18-5.21 4.18q-2.58 1.5-4.56 1.5c-1.54 0-2.71-.31-3.53-.94-.81-.62-1.39-1.64-1.76-3.08-.36-1.43-.55-3.54-.55-6.32 0-3.84.29-10.12.86-18.84h-.41q-12.15 17.82-18.36 28.53h-8.23l.41-1.99c1.24-1.51 2.49-3.09 3.73-4.72s2.75-3.71 4.54-6.22l18.15-25.78q-.03-4.125-.36-6.93c-.22-1.86-.51-3.34-.89-4.43-.38-1.1-.88-1.9-1.5-2.42-.62-.51-1.47-.77-2.56-.77-.89 0-1.79.26-2.71.77-.92.52-2.26 1.57-4.01 3.17l-2.11-2.35q3.735-3.69 6.18-5.01c1.63-.88 3.26-1.32 4.88-1.32"/><text x="2564.29" y="2052.05" fill-opacity="0" font-family="Arial,Arial_MSFontService,sans-serif" font-size="58.643">𝜆</text><path fill-rule="evenodd" d="M2618.24 1999.84h3.93l-.86 9.32 7.65-5.39 1.94 3.34-8.49 3.96 8.49 3.99-1.94 3.31-7.65-5.39.86 9.32h-3.93l.9-9.32-7.69 5.39-1.97-3.31 8.52-3.99-8.52-3.96 1.97-3.34 7.69 5.39Z"/><text x="2609.48" y="2019.49" fill-opacity="0" font-family="Arial,Arial_MSFontService,sans-serif" font-size="22.458">∗</text><path fill="#f8ccb9" fill-rule="evenodd" d="M1813.15 1451.04c57.49-34.46 174.95-71.05 276.79-78.87 101.85-7.81 245.57 6.04 334.28 31.98 88.72 25.93 166.43 79.58 198.02 123.63 31.58 44.05 57.84 74.96-8.52 140.68s-290.99 204.99-389.64 253.66-133.43 60.04-202.27 38.37c-68.84-21.68-164.66-104.81-210.79-168.4s-66.71-156.31-66-213.15c.71-56.85 10.64-93.44 68.13-127.9"/><path fill="#d74514" fill-rule="evenodd" d="M2197.76 1642c5.72 0 10.86.77 15.4 2.31l-2.48 11.59h-5.3q0-3.525-.75-5.49c-.5-1.31-1.27-2.25-2.29-2.82-1.03-.57-2.41-.85-4.14-.85-3.59 0-6.82 1.65-9.68 4.96-2.87 3.31-5.3 8.18-7.3 14.59-2 6.42-3 12.2-3 17.33 0 6.83 2.26 10.25 6.77 10.25 2.16 0 3.95-.68 5.35-2.04 1.41-1.37 2.43-3.48 3.08-6.35l.57-2.55c.21-1 .35-1.83.4-2.49.06-.66.08-1.27.08-1.81 0-1.1-.25-1.93-.77-2.49-.51-.55-1.39-.91-2.63-1.07l.57-2.68h19.77l-.56 2.68c-1.06.35-1.84.77-2.35 1.27q-.78.75-1.38 2.19c-.41.96-.85 2.56-1.34 4.81l-3.12 13.98-5.59 1.29-2.15-2.87c-3.54 1.92-7.23 2.87-11.06 2.87-5.68 0-10.03-1.59-13.07-4.78s-4.56-7.79-4.56-13.82c0-3.73.63-7.99 1.9-12.78 1.27-4.8 3.24-9.12 5.9-12.97s6-6.86 10.03-9.02c4.02-2.16 8.59-3.24 13.7-3.24"/><text x="2166.23" y="1691.54" fill-opacity="0" font-family="Arial,Arial_MSFontService,sans-serif" font-size="56.617">𝑮</text></g></svg>

<svg width="1298" height="1031" xmlns="http://www.w3.org/2000/svg" xmlns:xlink="http://www.w3.org/1999/xlink" overflow="hidden"><defs><clipPath id="clip0"><rect x="1607" y="1169" width="1298" height="1031"/></clipPath></defs><g clip-path="url(#clip0)" transform="translate(-1607 -1169)"><path d="M1607.5 2121.92 2816.76 2121.92 2816.76 2131.08 1607.5 2131.08ZM2812.17 2103.58 2858 2126.5 2812.17 2149.42Z"/><path d="M4.58333-1.68079e-06 4.58368 942.863-4.58299 942.863-4.58333 1.68079e-06ZM22.917 938.28 0.000360892 984.113-22.9163 938.28Z" transform="matrix(1 0 0 -1 2254.5 2199.61)"/><path d="M2797.55 2046.75C2799.28 2046.75 2800.65 2047.33 2801.65 2048.49 2802.65 2049.65 2803.15 2051.22 2803.15 2053.19 2803.15 2055.33 2802.73 2057.99 2801.89 2061.17L2800.11 2068.19C2799.65 2069.97 2799.32 2071.36 2799.11 2072.36 2798.91 2073.36 2798.76 2074.22 2798.67 2074.95 2798.57 2075.68 2798.53 2076.29 2798.53 2076.78 2798.53 2078.64 2798.84 2079.99 2799.46 2080.81 2800.08 2081.63 2801.09 2082.05 2802.5 2082.05 2803.63 2082.05 2804.85 2081.59 2806.16 2080.69 2807.48 2079.78 2808.87 2078.42 2810.34 2076.6 2811.81 2074.77 2812.99 2073 2813.89 2071.29 2814.78 2069.57 2815.51 2067.46 2816.07 2064.94L2819.92 2047.4 2826.94 2047.4 2821.02 2073.09C2820.42 2075.68 2820.13 2077.68 2820.13 2079.09 2820.13 2080.17 2820.3 2080.95 2820.65 2081.44 2821 2081.92 2821.56 2082.17 2822.31 2082.17 2823.13 2082.17 2823.99 2081.84 2824.91 2081.17 2825.83 2080.51 2827.12 2079.25 2828.8 2077.39L2831.11 2079.66C2828.65 2082.28 2826.56 2084.13 2824.83 2085.21 2823.1 2086.29 2821.26 2086.83 2819.32 2086.83 2817.64 2086.83 2816.3 2086.27 2815.3 2085.17 2814.3 2084.06 2813.8 2082.59 2813.8 2080.75 2813.8 2079.29 2814.13 2077.7 2814.78 2075.97L2814.29 2075.8C2811.62 2079.56 2809.08 2082.33 2806.69 2084.11 2804.3 2085.9 2801.85 2086.79 2799.34 2086.79 2796.82 2086.79 2794.89 2086.07 2793.54 2084.62 2792.19 2083.17 2791.51 2081.17 2791.51 2078.6 2791.51 2076.9 2791.91 2074.48 2792.69 2071.35L2795.32 2060.73C2796.05 2057.78 2796.42 2055.7 2796.42 2054.49 2796.42 2053.41 2796.24 2052.62 2795.89 2052.14 2795.54 2051.65 2794.99 2051.41 2794.23 2051.41 2793.39 2051.41 2792.51 2051.75 2791.57 2052.44 2790.64 2053.13 2789.37 2054.38 2787.75 2056.19L2785.44 2053.92C2787.73 2051.6 2789.46 2050 2790.62 2049.14 2791.78 2048.27 2792.9 2047.66 2793.97 2047.29 2795.03 2046.93 2796.23 2046.75 2797.55 2046.75Z" fill-rule="evenodd"/><text fill="#000000" fill-opacity="0" font-family="Arial,Arial_MSFontService,sans-serif" font-size="40.0815" x="2785.44" y="2081.82">𝑢</text><path d="M2306.9 1262.23 2312.49 1262.23 2310.26 1272.24 2322.58 1272.24 2321.69 1276.33 2309.37 1276.33 2305.76 1292.05C2305.06 1295.11 2304.61 1297.3 2304.42 1298.64 2304.23 1299.98 2304.14 1301.05 2304.14 1301.86 2304.14 1305.21 2305.53 1306.89 2308.31 1306.89 2309.5 1306.89 2310.77 1306.44 2312.1 1305.53 2313.44 1304.62 2315.03 1303.08 2316.87 1300.89L2319.22 1303.32C2316.87 1306.16 2314.6 1308.25 2312.43 1309.6 2310.25 1310.95 2307.98 1311.63 2305.6 1311.63 2299.95 1311.63 2297.13 1308.78 2297.13 1303.08 2297.13 1301.27 2297.36 1299.36 2297.82 1297.36L2302.6 1276.33 2295.79 1276.33 2296.4 1273.53C2297.99 1273.51 2299.2 1273.39 2300.03 1273.17 2300.85 1272.95 2301.54 1272.66 2302.09 1272.28 2302.65 1271.9 2303.15 1271.36 2303.61 1270.66 2304.07 1269.95 2304.52 1269.06 2304.95 1267.96 2305.38 1266.87 2306.03 1264.96 2306.9 1262.23Z" fill-rule="evenodd"/><text fill="#000000" fill-opacity="0" font-family="Arial,Arial_MSFontService,sans-serif" font-size="49.4028" x="2295.79" y="1305.45">𝑡</text><path d="M1660.5 1964.5 2751.1 1971.23" stroke="#D74514" stroke-width="9.16667" stroke-miterlimit="8" fill="none" fill-rule="evenodd"/><path d="M2319.45 2024.08C2318.08 2024.08 2316.72 2024.54 2315.38 2025.47 2314.04 2026.41 2312.58 2027.9 2310.98 2029.95 2309.39 2032.01 2308.15 2034.03 2307.26 2036.03 2306.36 2038.03 2305.66 2040.33 2305.15 2042.92L2304.82 2044.62C2304.55 2046.06 2304.39 2047.15 2304.32 2047.91 2304.25 2048.66 2304.22 2049.41 2304.22 2050.14 2304.22 2052.24 2304.67 2053.78 2305.57 2054.74 2306.48 2055.69 2308.04 2056.17 2310.25 2056.17 2311.63 2056.17 2312.9 2055.9 2314.06 2055.36 2315.23 2054.82 2316.33 2054.04 2317.37 2053.01 2318.41 2051.99 2319.35 2050.74 2320.18 2049.28 2321.02 2047.83 2321.77 2046.13 2322.43 2044.2 2323.1 2042.27 2323.6 2040.28 2323.93 2038.24 2324.27 2036.2 2324.44 2034.29 2324.44 2032.51 2324.44 2029.67 2324.04 2027.56 2323.24 2026.16 2322.45 2024.77 2321.18 2024.08 2319.45 2024.08ZM2302.39 2019.29C2304.07 2019.29 2305.4 2019.85 2306.38 2020.96 2307.37 2022.06 2307.86 2023.54 2307.86 2025.37 2307.86 2026.89 2307.55 2028.48 2306.93 2030.16L2307.42 2030.32C2312.42 2023 2317.39 2019.33 2322.33 2019.33 2325.28 2019.33 2327.57 2020.46 2329.2 2022.7 2330.84 2024.94 2331.65 2028.1 2331.65 2032.18 2331.65 2036.64 2330.75 2041.02 2328.96 2045.33 2327.16 2049.64 2324.67 2053.06 2321.48 2055.59 2318.29 2058.11 2314.73 2059.38 2310.78 2059.38 2307.19 2059.38 2304.2 2058.59 2301.83 2057.03L2299.96 2065.9C2299.56 2067.82 2299.35 2069.4 2299.35 2070.64 2299.35 2071.83 2299.66 2072.68 2300.26 2073.18 2300.87 2073.68 2302.05 2074.01 2303.81 2074.17L2303.49 2076.15 2290.96 2076.15 2300.73 2033.15C2301.3 2030.67 2301.58 2028.63 2301.58 2027.04 2301.58 2025.95 2301.41 2025.17 2301.06 2024.68 2300.7 2024.2 2300.15 2023.96 2299.39 2023.96 2298.56 2023.96 2297.67 2024.3 2296.74 2024.99 2295.81 2025.68 2294.53 2026.93 2292.91 2028.74L2290.6 2026.47C2293.03 2023.93 2295.09 2022.1 2296.78 2020.98 2298.47 2019.86 2300.34 2019.29 2302.39 2019.29Z" fill-rule="evenodd"/><text fill="#000000" fill-opacity="0" font-family="Arial,Arial_MSFontService,sans-serif" font-size="56.8599" x="2290.6" y="2069.05">𝑝</text><path d="M2350.05 1999.84 2353.98 1999.84 2353.12 2009.16 2360.77 2003.77 2362.71 2007.11 2354.22 2011.07 2362.71 2015.06 2360.77 2018.37 2353.12 2012.98 2353.98 2022.3 2350.05 2022.3 2350.94 2012.98 2343.26 2018.37 2341.29 2015.06 2349.81 2011.07 2341.29 2007.11 2343.26 2003.77 2350.94 2009.16Z" fill-rule="evenodd"/><text fill="#000000" fill-opacity="0" font-family="Arial,Arial_MSFontService,sans-serif" font-size="22.458" x="2341.29" y="2019.49">∗</text><path d="M2398.86 2040.73 2448.79 2040.73 2448.79 2046.12 2398.86 2046.12ZM2398.86 2023.91 2448.79 2023.91 2448.79 2029.3 2398.86 2029.3Z" fill-rule="evenodd"/><text fill="#000000" fill-opacity="0" font-family="Arial,Arial_MSFontService,sans-serif" font-size="22.209" x="2398.86" y="2043.35">=</text><path d="M2508.62 2022.5C2505.86 2022.5 2503.39 2023.61 2501.2 2025.84 2499.01 2028.07 2497.29 2031.07 2496.03 2034.86 2494.78 2038.64 2494.15 2042.41 2494.15 2046.16 2494.15 2048.97 2494.55 2051.07 2495.36 2052.47 2496.17 2053.86 2497.44 2054.55 2499.17 2054.55 2500.55 2054.55 2501.92 2054.08 2503.29 2053.13 2504.65 2052.19 2506.11 2050.69 2507.66 2048.64 2509.22 2046.58 2510.43 2044.62 2511.29 2042.76 2512.15 2040.9 2512.89 2038.57 2513.5 2035.79 2514.11 2033.01 2514.41 2030.59 2514.41 2028.53 2514.41 2026.43 2513.96 2024.89 2513.07 2023.93 2512.18 2022.98 2510.7 2022.5 2508.62 2022.5ZM2507.97 2019.29C2509.67 2019.29 2511.28 2019.5 2512.79 2019.9 2514.3 2020.31 2515.83 2021 2517.37 2021.97L2521.1 2019.29 2523.69 2019.94 2519.52 2038.83C2519.22 2040.15 2518.54 2043.49 2517.49 2048.84 2516.38 2054.51 2515.48 2058.52 2514.8 2060.88 2514.11 2063.23 2513.25 2065.37 2512.22 2067.3 2511.2 2069.23 2509.87 2070.91 2508.25 2072.34 2506.63 2073.78 2504.66 2074.88 2502.35 2075.67 2500.04 2076.45 2497.31 2076.84 2494.15 2076.84 2483.93 2076.84 2478.83 2073.87 2478.83 2067.93 2478.83 2066.41 2479.29 2065.04 2480.21 2063.79 2481.12 2062.55 2482.6 2061.24 2484.62 2059.86L2487.54 2062.21C2487.03 2062.83 2486.6 2063.45 2486.24 2064.06 2485.89 2064.66 2485.64 2065.25 2485.49 2065.82 2485.35 2066.39 2485.27 2067.06 2485.27 2067.85 2485.27 2069.87 2486 2071.35 2487.46 2072.28 2488.92 2073.22 2491.12 2073.68 2494.07 2073.68 2497.39 2073.68 2500.06 2072.93 2502.07 2071.43 2504.08 2069.93 2505.81 2067.52 2507.24 2064.2 2508.67 2060.88 2510.06 2055.85 2511.41 2049.12L2510.84 2049C2508.22 2052.59 2505.79 2055.22 2503.55 2056.86 2501.31 2058.51 2498.89 2059.34 2496.29 2059.34 2493.35 2059.34 2491.06 2058.23 2489.43 2056.01 2487.79 2053.8 2486.97 2050.64 2486.97 2046.53 2486.97 2041.91 2487.88 2037.47 2489.69 2033.22 2491.5 2028.96 2494.01 2025.58 2497.23 2023.06 2500.44 2020.55 2504.02 2019.29 2507.97 2019.29Z" fill-rule="evenodd"/><text fill="#000000" fill-opacity="0" font-family="Arial,Arial_MSFontService,sans-serif" font-size="57.5488" x="2478.83" y="2069.65">𝑔</text><path d="M2640.73 1996.61C2648.62 1998.69 2654.68 2003.19 2658.91 2010.09 2663.14 2016.99 2665.25 2025.32 2665.25 2035.07 2665.25 2044.85 2663.14 2053.18 2658.93 2060.06 2654.71 2066.94 2648.65 2071.41 2640.73 2073.49L2639.76 2070.37C2646 2068.29 2650.64 2064.19 2653.68 2058.05 2656.72 2051.92 2658.24 2044.13 2658.24 2034.67 2658.24 2025.54 2656.73 2017.95 2653.7 2011.91 2650.67 2005.87 2645.99 2001.81 2639.64 1999.73ZM2561.26 1996.61 2562.36 1999.73C2556.04 2001.81 2551.35 2005.87 2548.31 2011.91 2545.28 2017.95 2543.76 2025.54 2543.76 2034.67 2543.76 2044.13 2545.28 2051.92 2548.31 2058.05 2551.35 2064.19 2555.99 2068.29 2562.24 2070.37L2561.26 2073.49C2553.35 2071.41 2547.28 2066.94 2543.07 2060.06 2538.85 2053.18 2536.74 2044.85 2536.74 2035.07 2536.74 2025.32 2538.86 2016.99 2543.09 2010.09 2547.31 2003.19 2553.37 1998.69 2561.26 1996.61Z" fill-rule="evenodd"/><path d="M2588.04 2000.73C2590.12 2000.73 2591.72 2001.22 2592.83 2002.19 2593.93 2003.16 2594.72 2004.7 2595.18 2006.79 2595.64 2008.89 2595.87 2011.95 2595.87 2015.97 2595.87 2017.3 2595.84 2019.21 2595.78 2021.73L2595.62 2028.13C2595.41 2034.21 2595.3 2038.99 2595.3 2042.48 2595.3 2045.29 2595.36 2047.48 2595.48 2049.06 2595.6 2050.64 2595.8 2051.84 2596.07 2052.65 2596.34 2053.46 2596.68 2054.01 2597.08 2054.29 2597.49 2054.57 2597.99 2054.72 2598.58 2054.72 2599.28 2054.72 2600.03 2054.48 2600.83 2054.01 2601.63 2053.53 2602.61 2052.68 2603.77 2051.43L2606.04 2053.7C2604.28 2055.49 2602.55 2056.88 2600.83 2057.88 2599.11 2058.88 2597.59 2059.38 2596.27 2059.38 2594.73 2059.38 2593.56 2059.07 2592.74 2058.44 2591.93 2057.82 2591.35 2056.8 2590.98 2055.36 2590.62 2053.93 2590.43 2051.82 2590.43 2049.04 2590.43 2045.2 2590.72 2038.92 2591.29 2030.2L2590.88 2030.2C2582.78 2042.08 2576.66 2051.59 2572.52 2058.73L2564.29 2058.73 2564.7 2056.74C2565.94 2055.23 2567.19 2053.65 2568.43 2052.02 2569.67 2050.39 2571.18 2048.31 2572.97 2045.8L2591.12 2020.02C2591.1 2017.27 2590.98 2014.96 2590.76 2013.09 2590.54 2011.23 2590.25 2009.75 2589.87 2008.66 2589.49 2007.56 2588.99 2006.76 2588.37 2006.24 2587.75 2005.73 2586.9 2005.47 2585.81 2005.47 2584.92 2005.47 2584.02 2005.73 2583.1 2006.24 2582.18 2006.76 2580.84 2007.81 2579.09 2009.41L2576.98 2007.06C2579.47 2004.6 2581.53 2002.93 2583.16 2002.05 2584.79 2001.17 2586.42 2000.73 2588.04 2000.73Z" fill-rule="evenodd"/><text fill="#000000" fill-opacity="0" font-family="Arial,Arial_MSFontService,sans-serif" font-size="58.6431" x="2564.29" y="2052.05">𝜆</text><path d="M2618.24 1999.84 2622.17 1999.84 2621.31 2009.16 2628.96 2003.77 2630.9 2007.11 2622.41 2011.07 2630.9 2015.06 2628.96 2018.37 2621.31 2012.98 2622.17 2022.3 2618.24 2022.3 2619.14 2012.98 2611.45 2018.37 2609.48 2015.06 2618 2011.07 2609.48 2007.11 2611.45 2003.77 2619.14 2009.16Z" fill-rule="evenodd"/><text fill="#000000" fill-opacity="0" font-family="Arial,Arial_MSFontService,sans-serif" font-size="22.458" x="2609.48" y="2019.49">∗</text><path d="M1813.15 1451.04C1870.64 1416.58 1988.1 1379.99 2089.94 1372.17 2191.79 1364.36 2335.51 1378.21 2424.22 1404.15 2512.94 1430.08 2590.65 1483.73 2622.24 1527.78 2653.82 1571.83 2680.08 1602.74 2613.72 1668.46 2547.36 1734.18 2322.73 1873.45 2224.08 1922.12 2125.43 1970.79 2090.65 1982.16 2021.81 1960.49 1952.97 1938.81 1857.15 1855.68 1811.02 1792.09 1764.89 1728.5 1744.31 1635.78 1745.02 1578.94 1745.73 1522.09 1755.66 1485.5 1813.15 1451.04Z" fill="#F8CCB9" fill-rule="evenodd"/><path d="M2197.76 1642C2203.48 1642 2208.62 1642.77 2213.16 1644.31L2210.68 1655.9 2205.38 1655.9C2205.38 1653.55 2205.13 1651.72 2204.63 1650.41 2204.13 1649.1 2203.36 1648.16 2202.34 1647.59 2201.31 1647.02 2199.93 1646.74 2198.2 1646.74 2194.61 1646.74 2191.38 1648.39 2188.52 1651.7 2185.65 1655.01 2183.22 1659.88 2181.22 1666.29 2179.22 1672.71 2178.22 1678.49 2178.22 1683.62 2178.22 1690.45 2180.48 1693.87 2184.99 1693.87 2187.15 1693.87 2188.94 1693.19 2190.34 1691.83 2191.75 1690.46 2192.77 1688.35 2193.42 1685.48L2193.99 1682.93C2194.2 1681.93 2194.34 1681.1 2194.39 1680.44 2194.45 1679.78 2194.47 1679.17 2194.47 1678.63 2194.47 1677.53 2194.22 1676.7 2193.7 1676.14 2193.19 1675.59 2192.31 1675.23 2191.07 1675.07L2191.64 1672.39 2211.41 1672.39 2210.85 1675.07C2209.79 1675.42 2209.01 1675.84 2208.5 1676.34 2207.98 1676.84 2207.52 1677.57 2207.12 1678.53 2206.71 1679.49 2206.27 1681.09 2205.78 1683.34L2202.66 1697.32 2197.07 1698.61 2194.92 1695.74C2191.38 1697.66 2187.69 1698.61 2183.86 1698.61 2178.18 1698.61 2173.83 1697.02 2170.79 1693.83 2167.75 1690.64 2166.23 1686.04 2166.23 1680.01 2166.23 1676.28 2166.86 1672.02 2168.13 1667.23 2169.4 1662.43 2171.37 1658.11 2174.03 1654.26 2176.69 1650.41 2180.03 1647.4 2184.06 1645.24 2188.08 1643.08 2192.65 1642 2197.76 1642Z" fill="#D74514" fill-rule="evenodd"/><text fill="#000000" fill-opacity="0" font-family="Arial,Arial_MSFontService,sans-serif" font-size="56.6167" x="2166.23" y="1691.54">𝑮</text></g></svg>
